COLOR/categories 16/16/emoji-recent.svg

<svg height="16" width="16" xmlns="http://www.w3.org/2000/svg" xmlns:xlink="http://www.w3.org/1999/xlink"><linearGradient id="a" gradientTransform="matrix(.31496064 0 0 .31496076 .16667 -77.70997)" gradientUnits="userSpaceOnUse" x1="13.735326" x2="38.099998" y1="249.69423" y2="292.76666"><stop offset="0" stop-color="#e1e1e1"/><stop offset="1" stop-color="#f7f7f7"/></linearGradient><circle cx="8" cy="8" fill="url(#a)" r="7.5"/><g enable-background="new" stroke-width="1.375" transform="matrix(.36363636 0 0 .36363636 -117.08558 -22.40944)"><path d="m331.88535 77.40342 10.77775 6.22254 16.65653-9.616652" fill="none" stroke="#3b3b3b" stroke-width="2.2"/><circle cx="342.66309" cy="83.625961" fill="#f22c42" r="2"/><path d="m342.6631 79.62596v20.8" fill="none" stroke="#f22c42" stroke-width="1.65"/></g><path d="m8 .5a7.5 7.5 0 0 0 -7.5 7.5 7.5 7.5 0 0 0 .00976562.2871094 7.5 7.5 0 0 1 7.49023438-7.2871094 7.5 7.5 0 0 1 7.490234 7.2128906 7.5 7.5 0 0 0 .009766-.2128906 7.5 7.5 0 0 0 -7.5-7.5z" fill="#fff" opacity=".3"/><path d="m15.490234 7.7128906a7.5 7.5 0 0 1 -7.490234 7.2871094 7.5 7.5 0 0 1 -7.49023438-7.2128906 7.5 7.5 0 0 0 -.00976562.2128906 7.5 7.5 0 0 0 7.5 7.5 7.5 7.5 0 0 0 7.5-7.5 7.5 7.5 0 0 0 -.009766-.2871094z" opacity=".2"/></svg>

<?xml version="1.0" encoding="UTF-8" standalone="no"?>
<svg
   xmlns:dc="http://purl.org/dc/elements/1.1/"
   xmlns:cc="http://creativecommons.org/ns#"
   xmlns:rdf="http://www.w3.org/1999/02/22-rdf-syntax-ns#"
   xmlns:svg="http://www.w3.org/2000/svg"
   xmlns="http://www.w3.org/2000/svg"
   xmlns:xlink="http://www.w3.org/1999/xlink"
   xmlns:sodipodi="http://sodipodi.sourceforge.net/DTD/sodipodi-0.dtd"
   xmlns:inkscape="http://www.inkscape.org/namespaces/inkscape"
   width="16"
   height="16"
   version="1.1"
   id="svg4"
   sodipodi:docname="document-open-recent.svg"
   inkscape:version="0.92.4 (5da689c313, 2019-01-14)">
  <metadata
     id="metadata10">
    <rdf:RDF>
      <cc:Work
         rdf:about="">
        <dc:format>image/svg+xml</dc:format>
        <dc:type
           rdf:resource="http://purl.org/dc/dcmitype/StillImage" />
      </cc:Work>
    </rdf:RDF>
  </metadata>
  <defs
     id="defs8">
    <linearGradient
       inkscape:collect="always"
       xlink:href="#linearGradient4239-3"
       id="linearGradient8588-0-1-1"
       gradientUnits="userSpaceOnUse"
       gradientTransform="matrix(0.31496064,0,0,0.31496076,0.16667,-77.70997)"
       x1="13.735326"
       y1="249.69423"
       x2="38.099998"
       y2="292.76666" />
    <linearGradient
       id="linearGradient4239-3"
       inkscape:collect="always">
      <stop
         id="stop4241-6"
         offset="0"
         style="stop-color:#e1e1e1;stop-opacity:1" />
      <stop
         id="stop4243-7"
         offset="1"
         style="stop-color:#f7f7f7;stop-opacity:1" />
    </linearGradient>
  </defs>
  <sodipodi:namedview
     pagecolor="#ffffff"
     bordercolor="#666666"
     borderopacity="1"
     objecttolerance="10"
     gridtolerance="10"
     guidetolerance="10"
     inkscape:pageopacity="0"
     inkscape:pageshadow="2"
     inkscape:window-width="1169"
     inkscape:window-height="769"
     id="namedview6"
     showgrid="false"
     inkscape:zoom="34.312502"
     inkscape:cx="7.9999995"
     inkscape:cy="8.0000002"
     inkscape:window-x="0"
     inkscape:window-y="27"
     inkscape:window-maximized="0"
     inkscape:current-layer="svg4" />
  <circle
     style="display:inline;opacity:1;fill:url(#linearGradient8588-0-1-1);fill-opacity:1;stroke:none;stroke-width:1.8694036;stroke-linecap:round;stroke-linejoin:round;stroke-miterlimit:4;stroke-dasharray:none;stroke-opacity:1;enable-background:new"
     id="path9498-6-5-6-1"
     cx="8"
     cy="7.9999995"
     r="7.5"
     inkscape:export-filename="/home/stuart/yaru/icons/Suru/16x16/legacy/document-open-recent.png"
     inkscape:export-xdpi="95.986786"
     inkscape:export-ydpi="95.986786" />
  <g
     style="display:inline;opacity:1;stroke-width:1.375;enable-background:new"
     id="g945-5"
     transform="matrix(0.36363636,0,0,0.36363636,-117.08558,-22.40944)"
     inkscape:export-filename="/home/stuart/yaru/icons/Suru/16x16/legacy/document-open-recent.png"
     inkscape:export-xdpi="95.986786"
     inkscape:export-ydpi="95.986786">
    <path
       inkscape:transform-center-y="-31.112701"
       inkscape:transform-center-x="53.888775"
       sodipodi:nodetypes="ccc"
       inkscape:connector-curvature="0"
       id="path938-9"
       d="m 331.88535,77.40342 10.77775,6.22254 16.65653,-9.616652"
       style="color:#000000;display:inline;overflow:visible;visibility:visible;opacity:1;fill:none;fill-opacity:1;fill-rule:nonzero;stroke:#3b3b3b;stroke-width:2.20000005;stroke-linecap:butt;stroke-linejoin:miter;stroke-miterlimit:4;stroke-dasharray:none;stroke-dashoffset:0;stroke-opacity:1;marker:none;enable-background:accumulate" />
    <circle
       r="2"
       cy="83.625961"
       cx="342.66309"
       id="circle940-4"
       style="color:#000000;display:inline;overflow:visible;visibility:visible;opacity:1;fill:#f22c42;fill-opacity:1;fill-rule:nonzero;stroke:none;stroke-width:2.20000005;stroke-linecap:butt;stroke-linejoin:miter;stroke-miterlimit:4;stroke-dasharray:none;stroke-dashoffset:0;stroke-opacity:1;marker:none;enable-background:accumulate" />
    <path
       inkscape:connector-curvature="0"
       id="path943-9"
       d="m 342.6631,79.62596 v 20.8"
       style="color:#000000;display:inline;overflow:visible;visibility:visible;opacity:1;fill:none;fill-opacity:1;fill-rule:nonzero;stroke:#f22c42;stroke-width:1.6500001;stroke-linecap:butt;stroke-linejoin:miter;stroke-miterlimit:4;stroke-dasharray:none;stroke-dashoffset:0;stroke-opacity:1;marker:none;enable-background:accumulate" />
  </g>
  <path
     style="display:inline;opacity:0.3;fill:#ffffff;fill-opacity:1;stroke:none;stroke-width:1.8694036;stroke-linecap:round;stroke-linejoin:round;stroke-miterlimit:4;stroke-dasharray:none;stroke-opacity:1;enable-background:new"
     d="M 8 0.5 A 7.5 7.5 0 0 0 0.5 8 A 7.5 7.5 0 0 0 0.50976562 8.2871094 A 7.5 7.5 0 0 1 8 1 A 7.5 7.5 0 0 1 15.490234 8.2128906 A 7.5 7.5 0 0 0 15.5 8 A 7.5 7.5 0 0 0 8 0.5 z "
     id="circle831" />
  <path
     style="display:inline;opacity:0.2;fill:#000000;fill-opacity:1;stroke:none;stroke-width:1.8694036;stroke-linecap:round;stroke-linejoin:round;stroke-miterlimit:4;stroke-dasharray:none;stroke-opacity:1;enable-background:new"
     d="M 15.490234 7.7128906 A 7.5 7.5 0 0 1 8 15 A 7.5 7.5 0 0 1 0.50976562 7.7871094 A 7.5 7.5 0 0 0 0.5 8 A 7.5 7.5 0 0 0 8 15.5 A 7.5 7.5 0 0 0 15.5 8 A 7.5 7.5 0 0 0 15.490234 7.7128906 z "
     id="circle840" />
</svg>
